brandFactory_export/2.Regular/Avanzar_2Regular.svg

<?xml version="1.0" encoding="UTF-8"?>
<svg width="24px" height="24px" viewBox="0 0 24 24" version="1.1" xmlns="http://www.w3.org/2000/svg" xmlns:xlink="http://www.w3.org/1999/xlink">
    <title>2.Regular/Avanzar_2Regular</title>
    <g id="Symbols" stroke="none" stroke-width="1" fill="none" fill-rule="evenodd">
        <g id="2.Regular/Avanzar_2Regular" fill="#5CB615" fill-rule="nonzero">
            <path d="M11.8151261,22.1714286 C4.93781513,22.1714286 1.45210084,18.6857143 1.45210084,11.8151261 C1.45210084,4.93781513 4.93781513,1.45210084 11.8151261,1.45210084 C18.6890756,1.45210084 22.1714286,4.93781513 22.1714286,11.8151261 C22.1714286,18.6857143 18.6857143,22.1714286 11.8151261,22.1714286 Z M11.8151261,0 C4.08739496,0 0,4.08403361 0,11.8151261 C0,19.5394958 4.08403361,23.6235294 11.8151261,23.6235294 C19.5394958,23.6235294 23.6235294,19.5394958 23.6235294,11.8151261 C23.6235294,4.08403361 19.5394958,0 11.8151261,0 Z M6.60504202,13.7277311 L6.60504202,9.17983193 L10.410084,11.4655462 C10.4067227,11.4655462 6.60504202,13.7277311 6.60504202,13.7277311 L6.60504202,13.7277311 Z M17.5159664,11.4588235 L13.7109244,13.7210084 L13.7109244,9.17310924 L17.5159664,11.4588235 Z M5.51932773,7.26386555 C5.2907563,7.39159664 5.14957983,7.63361345 5.14957983,7.89579832 L5.14957983,15.0016807 C5.14957983,15.4016807 5.47563025,15.7277311 5.87563025,15.7277311 C6.00672269,15.7277311 6.13445378,15.6941176 6.2487395,15.6268908 L12.1915966,12.0907563 C12.2218487,12.0739496 12.2352941,12.0403361 12.2621849,12.0201681 L12.2621849,14.9983193 C12.2621849,15.3983193 12.5882353,15.7243697 12.9882353,15.7243697 C13.1193277,15.7243697 13.2470588,15.6907563 13.3579832,15.6235294 L19.3008403,12.087395 C19.6470588,11.8823529 19.7579832,11.4352941 19.5529412,11.092437 C19.492437,10.9882353 19.405042,10.9042017 19.3042017,10.8436975 L13.3613445,7.26722689 C13.0184874,7.06218487 12.5714286,7.17310924 12.3663866,7.51596639 C12.2991597,7.6302521 12.2621849,7.75798319 12.2621849,7.88907563 L12.2621849,10.9109244 C12.2352941,10.8907563 12.2252101,10.8605042 12.194958,10.8436975 L6.25210084,7.27394958 C6.02689076,7.1394958 5.74789916,7.13613445 5.51932773,7.26386555 Z" id="Avanzar_2Regular"></path>
        </g>
    </g>
</svg>

<svg width="24" height="24" viewBox="0 0 24 24" xmlns="http://www.w3.org/2000/svg"><path d="M11.815 22.171c-6.877 0-10.363-3.485-10.363-10.356 0-6.877 3.486-10.363 10.363-10.363 6.874 0 10.356 3.486 10.356 10.363 0 6.87-3.485 10.356-10.356 10.356zm0-22.171C4.087 0 0 4.084 0 11.815c0 7.724 4.084 11.809 11.815 11.809 7.724 0 11.809-4.085 11.809-11.809C23.624 4.084 19.539 0 11.815 0zm-5.21 13.728V9.18l3.805 2.286c-.003 0-3.805 2.262-3.805 2.262zm10.911-2.27l-3.805 2.263V9.173l3.805 2.286zM5.519 7.265a.724.724 0 00-.37.632v7.106a.727.727 0 001.1.625l5.943-3.536c.03-.017.043-.05.07-.07v2.977a.727.727 0 001.096.626l5.943-3.537a.725.725 0 00.003-1.243l-5.943-3.577a.727.727 0 00-1.099.622v3.022c-.027-.02-.037-.05-.067-.067l-5.943-3.57a.732.732 0 00-.733-.01z" fill="#5CB615" fill-rule="nonzero"/></svg>
